X:47
T:Dedicado a Jos
T: Viva el West Side
C:Martin Racine
R:reel
M:C|
K:Bm
"F#"F4|:"Bm"B2Bc d2e2   |fgfd Bfff |"F#m"fgfd cfff  |"Bm"fgfd  B2F2|
"Bm"B2Bc d2e2 |fgfd Bfff |"F#m"fgfed2 c2 |1"Bm"B4 "F#"F4 :|2"Bm"B4"A"A4||
|:"D"f2df dfdf|"G"g2dg "(G#dim)" d^gdg|a2>a2a2a2-|"A"a2 g2 (3fgf e2|
"A"a2>a2a2a2-|"A"a2 g2 (3fgf e2|1"D"f2 df dfdf|"A"cf cf Bf A2:|2"D"d2AA "A"BABc | "D"d4|]
